X: 39
T:Cup of Tea, The
M:C|
L:1/8
R:Reel
K:EDor
A[|:BAGF GEEF|GEBE GEEA|BAGF GEEG|FGAG FDDA|!
BAGF GEEF|GEBE GEEA|BAGF GABc|dBAG FDDA:|!
|:d2eg fdec|d2eg fB~B2|d2eg fdec|dBAG FDDA|!
d2eg fdec|dfaf g2fg|afge fdec|dBAG FDDA:|!
|:FAdA FABA|FAdA FEEG|FEFA ~B3c|dBAG FDDA|!
FAdA FABA|FAde fe~e2|fedc dBAF|GBAG FDDA:|!
